X: 41674
T: Upside Down In Eden Court
R: reel
M: 4/4
K: Amixolydian
|:a2|GAAA ABBB|Bccc cddd|eede ceee|dece eedB|
GAAA ABBB|Bccc cddd|eede ceee|dBBB A2:|
ze|acca ccac|cacc acca|BBAB BABB|ABBA BBBe|
acca ccac|cacc acca|BBAB BABB|ecdB A2 eg|
acca A2 ac|ca A2 acca|BBAB BABB|ABBA BBBe|
GAAA ABBB|Bccc cddd|eede ceee|dBBB A2||
"alternative final four bars"
GAAA ABBB|Bccc cddd|deee efff|fggg a4||

